code/IMG/search.svg

<svg width="27" height="27" viewBox="0 0 27 27" fill="none" xmlns="http://www.w3.org/2000/svg">
<path fill-rule="evenodd" clip-rule="evenodd" d="M19.7534 20.3988C17.79 21.831 15.3207 22.6842 12.6386 22.6842C6.24098 22.6842 1.05469 17.83 1.05469 11.8421C1.05469 5.85418 6.24098 1 12.6386 1C19.0362 1 24.2225 5.85418 24.2225 11.8421C24.2225 14.941 22.8335 17.7362 20.6064 19.7121L25.0547 24.2919L24.2225 25L19.7534 20.3988ZM23.3644 11.8421C23.3644 17.3865 18.5623 21.8811 12.6386 21.8811C6.71488 21.8811 1.91276 17.3865 1.91276 11.8421C1.91276 6.29773 6.71488 1.80312 12.6386 1.80312C18.5623 1.80312 23.3644 6.29773 23.3644 11.8421Z" fill="#CEC7B9" stroke="#CEC7B9" stroke-width="2"/>
</svg>

<svg width="27" height="27" fill="none" xmlns="http://www.w3.org/2000/svg"><path fill-rule="evenodd" clip-rule="evenodd" d="M19.753 20.399c-1.963 1.432-4.432 2.285-7.114 2.285-6.398 0-11.584-4.854-11.584-10.842S6.24 1 12.639 1c6.397 0 11.584 4.854 11.584 10.842 0 3.099-1.39 5.894-3.617 7.87l4.449 4.58-.832.708-4.47-4.601zm3.611-8.557c0 5.545-4.802 10.04-10.725 10.04-5.924 0-10.726-4.495-10.726-10.04 0-5.544 4.802-10.039 10.726-10.039 5.923 0 10.725 4.495 10.725 10.04z" fill="#CEC7B9" stroke="#CEC7B9" stroke-width="2"/></svg>
